!!!!SEGMENT: pl-wn--mus-iii-105-719-1--001-009_zelenski-wladyslaw--25-preludyi-op-38-9-allegro-moderato.krn
!!!cenid: 18xx:3742
!!!COM: Żeleński, Władysław
!!!COM-rismID: pe41024455
!!!CDT: 1837/07/06-1921/01/23
!!!CNT: Polish
!!!GTL: 25 preludyi op. 38
!!!OTL: 9. Allegro moderato
!!!OMV: 009
!!!PDT: 1881
!!!AGN:
!!!SMS-siglum: PL-Wn
!!!SMS-shelfmark: Mus.III.105.719/1
!!!SMS-shelfwork: 001-009 G
!!!SMS-variant:
!!!SMS-altvar:
!!!NIFC-rismSourceID:
!!!NIFC-rismChildID:
!!!NIFC-islandoraID: none
!!!URL-pdf-islandora:
!!!URL-scan: https://polona2.pl/item/25-preludyi-2-3-i-4-glosowych-na-organ-lub-fisharmonike-do-uzytku-organistow-i,ODE1NjEwMzc/2 @EN{Scan on Polona} @PL{Skany w portalu Polona}
!!!IIIF: https://polona2.pl/iiif/item/ODE1NjEwMzc/manifest.json
!!!ONB-nifc:
!!!AIN: 2 organ
!!!key: G
**kern	**fing	**kern	**fing	**dynam
*part2	*	*part1	*	*part1
*staff2	*	*staff1	*	*
*I"organ lub fisharmonika	*	*I"organ lub fisharmonika	*	*
*Iorgan	*	*Iorgan	*	*
*ICklav	*	*ICklav	*	*
*IGsolo	*	*IGsolo	*	*
*clefF4	*	*clefG2	*	*
*k[f#]	*	*k[f#]	*	*
*G:	*	*G:	*	*
*M4/4	*	*M4/4	*	*
*met(c)	*	*met(c)	*	*
=1	=1	=1	=1	=1
*	*	*^	*	*
*xywh-#16:724,440,5041,1299	*	*xywh-#16:724,440,5041,1299	*xywh-#16:724,440,5041,1299	*	*
*	*below	*	*	*below	*
!	!	!LO:TX:a:t=1):wszystkiemi głosami 8 i 4 stopowemi. / Mit allen 8 und 4 Fuss_stimmen:footnote	!	!	!
!	!	!LO:TX:a:B:t=9. Allegro moderato.	!	!	!
!	!	!LO:TX:a:B:t=II. Preludya trzygłosowe  II. Dreistimmige Praeludien.	!	!	!
4r	.	(2dd/	2b\	5 3	mf
(4GG/	.	.	.	.	.
4E\	1	2g/	[2g\	1	.
4D\	2	.	.	.	.
=2	=2	=2	=2	=2	=2
*	*	*	*	*above	*
4C/	3	4a/	1g_	2	.
8BB/L	.	4b/	.	3	.
8C/J	.	.	.	.	.
4AA/	5	4cc/	.	4	.
4C/	3	4ee/	.	5	.
=3	=3	=3	=3	=3	=3
1D	2	4dd/	2g\]	.	.
.	.	2a/	.	2_4	.
*	*	*	*	*below	*
.	.	.	[2f#\	2	.
*	*	*	*	*above	*
.	.	8g/L	.	3	.
.	.	8a/J	.	4	.
=4	=4	=4	=4	=4	=4
2GG/	.	2cc/	4f#\]	.	.
.	.	.	8e\L	.	.
.	.	.	8f#\J	.	.
4G\	1	[2b/	[2g\	1 4	.
4F#\	3	.	.	.	.
=5	=5	=5	=5	=5	=5
4E\	4	4b/])	4g\]	.	.
*	*	*	*	*below	*
4c\	.	(4e/	2e\	1	<
*	*	*	*	*above	*
4B\	.	4f#/	.	3	.
4A\	.	4cc/	4d#X\	2 5	.
=6	=6	=6	=6	=6	=6
4G\	1	4b/	4e\	1 4	.
4E\	2	4b-X/	2g\	2_1 3	.
4C#X/	4	2a/	.	4	.
*	*	*	*	*below	*
4D#X/	3	.	4f#\	2	.
!!LO:LB:g=original
=7	=7	=7	=7	=7	=7
*xywh-#16:718,1715,5129,731	*	*xywh-#16:718,1715,5129,731	*xywh-#16:718,1715,5129,731	*	*
*	*	*	*	*above	*
4E\	1	4g/	4e\	1_2 3	.
4G\	2	4b-X/	2d\	1 5	.
4A\	1	2e/	.	3	.
*	*	*	*	*below	*
4AA/	5	.	[4c#X\	2	[
=8	=8	=8	=8	=8	=8
*	*	*	*	*above	*
4D/	1	2g/	2c#\]	5	.
4AA/	2	.	.	.	.
4DD/)	5	4f#/)	4d\	4	.
4r	.	4r	4ryy	.	.
*	*	*v	*v	*	*
=9!|:	=9!|:	=9!|:	=9!|:	=9!|:
(2.F# 2.D\	3 5	4r	.	.
.	.	(4d/	.	.
.	.	[2dd\	.	<
4G 4E\	2 4	.	.	.
=10	=10	=10	=10	=10
2.A 2.F#\	.	4dd\]	.	.
.	.	4a/	.	.
.	.	[2cc\	.	.
4G 4E\	.	.	.	.
=11	=11	=11	=11	=11
*^	*	*	*	*
*	*	*above	*	*	*
2F#/	1D#X	3	4cc\]	.	.
.	.	.	[4b\	.	[
[2B/	.	1	8b/L]	.	.
.	.	.	8a/	.	.
*	*	*	*	*below	*
.	.	.	8g/	1	.
.	.	.	8f#/J	3	.
=12	=12	=12	=12	=12	=12
*	*	*below	*	*	*
(2.B/]	4E\	4	8g/L	4	>
.	.	.	8f#/J	3	.
.	4G\	2	2e/	2	.
.	2C#X\	5	.	.	.
*	*	*above	*	*	*
4A#X/))	.	2	4g/)	4	]
!!LO:LB:g=original
=13	=13	=13	=13	=13	=13
*xywh-#16:706,2396,5091,725	*xywh-#16:706,2396,5091,725	*	*xywh-#16:706,2396,5091,725	*	*
*	*	*below	*	*	*
!	!	!	!	!	!LO:HP:t=cresc. molto
([1B	2.D\	5	4r	.	<
.	.	.	(4f#/	.	.
*	*	*	*	*above	*
.	.	.	2ff#\)	4	.
.	4D#X\	4	.	.	.
=14	=14	=14	=14	=14	=14
2.B/]	1E	5	4r	.	.
.	.	.	(4gg\	.	.
.	.	.	[<2cc\	1	.
8A/L	.	.	.	.	.
8G/J	.	.	.	.	.
=15	=15	=15	=15	=15	=15
2A/	2F#\	1 4_3	4cc\]	.	.
.	.	.	2aa\	.	.
2G/	2E\	2 4	.	.	.
.	.	.	4cc#X\	2	.
=16	=16	=16	=16	=16	=16
2F#/)	2D\	3 5	4dd\	3	.
.	.	.	4a/	1	.
2r	2ryy	.	4b\	3	.
.	.	.	4cc\	4	.
*v	*v	*	*	*	*
=17	=17	=17	=17	=17
*	*	*^	*	*
!	!	!LO:TX:b:i:t=e con energia	!	!	!
!	!	!LO:TX:a:t=2):Pełnym organem.) (Grand jeu.) / Volles Werk.:footnote	!	!	!
4r	.	2dd/)	2b\	.	f
(<4GG/	.	.	.	.	.
*	*	*	*	*below	*
4E\	.	(2g/	[2g\	1	.
4D\	.	.	.	.	.
=18	=18	=18	=18	=18	=18
*	*	*	*	*above	*
4C/	3	4a/	2g\]	2	.
4AA/	5	2cc/	.	5	.
*	*	*	*	*below	*
4D/	1	.	2fn\	2	.
*	*	*	*	*above	*
4GG/)	.	4b/	.	4	.
!!LO:LB:g=original
=19	=19	=19	=19	=19	=19
*xywh-#16:661,3084,5173,1123	*	*xywh-#16:661,3084,5173,1123	*xywh-#16:661,3084,5173,1123	*	*
(4C/	2	4ee/	2e\	.	.
4AA/	4	4cc/	.	.	.
*	*	*	*	*below	*
4Fn\	1	2a/	2a\	2	.
4E\	2	.	.	.	.
=20	=20	=20	=20	=20	=20
4D/	.	4b/	2a\	.	.
4BB/	.	2dd/	.	.	.
4E\	.	.	[2g\	1	.
*	*	*	*	*above	*
4AA/	.	4cc#X/	.	4	.
=21	=21	=21	=21	=21	=21
*	*	*	*	*^	*
4D\	1	2ccn/	4g\]	5	.	.
4D#X\	2	.	4f#\	.	2	.
4E\	1	4b/	[2g\	3	1	.
4C#X/	3	4ee/	.	5	.	.
*	*	*	*	*v	*v	*
=22	=22	=22	=22	=22	=22
4D/	1	4a/	4g\]	1 3	.
4GG#X/	4	4b/	4fn\	2 4	.
4AA/	3	4cc/	4e\	1 5	.
4C/	2	4g/	4e-X\	2 3	.
=23	=23	=23	=23	=23	=23
1D	.	4b/	2.d\	1 5	>
.	.	4g/	.	4	.
.	.	4e/	.	3	.
.	.	4f#/	[4c\	2 4	.
=24	=24	=24	=24	=24	=24
1GG)	.	1g)	4c\]	5	.
.	.	.	4A\	.	.
.	.	.	2B\	.	]
*	*	*v	*v	*	*
==	==	==	==	==
*-	*-	*-	*-	*-
!!!system-decoration: {(s1,s2)}
!!!RDF**kern: < = below
!!!ENC: Filip Voros
!!!END: 2022-03-11
!!!ENC: Marta Lawrence
!!!END: 2022-03-15
!!!ENC-iiif: Jan Barakat
!!!END-iiif: 2022-08-31
!!!YEC: Copyright 2022 Narodowy Instytut Fryderyka Chopina (https://polishscores.org)
!!!YEM: License CC-BY-4.0 (https://creativecommons.org/licenses/by/4.0)
